app/dist/common/images/dakota-gold.svg

<svg height="18" viewBox="0 0 18 18" width="18" xmlns="http://www.w3.org/2000/svg"><path d="m0 0h18v18h-18z" fill="#f0f3fa"/><path d="m3 7.37 2.7 1.46v3.54l-2.7-1.5z" fill="#0070b2"/><path d="m6 9 2.85 1.46v3.54l-2.85-1.5z" fill="#009ca8"/><path d="m15 7.37-2.7 1.46v3.54l2.7-1.5z" fill="#ffd952"/><path d="m12 9-2.85 1.46v3.54l2.85-1.5z" fill="#01a863"/><path d="m5.7 5.63-2.55 1.42 2.55 1.41z" fill="#19588d"/><path d="m8.85 7.54v-3.54l-2.85 1.5v3.1l.4.2z" fill="#057279"/><path d="m12.3 5.63v2.83l2.56-1.41z" fill="#feb34d"/><path d="m12 5.5-2.85-1.5v3.54l2.46 1.26.39-.2z" fill="#337665"/></svg>

<!-- by TradingView --><svg width="18" height="18" viewBox="0 0 18 18" xmlns="http://www.w3.org/2000/svg"><path fill="#F0F3FA" d="M0 0h18v18H0z"/><path d="m3 7.37 2.7 1.46v3.54L3 10.87v-3.5Z" fill="#0070B2"/><path d="m6 9 2.85 1.46V14L6 12.5V9Z" fill="#009CA8"/><path d="m15 7.37-2.7 1.46v3.54l2.7-1.5v-3.5Z" fill="#FFD952"/><path d="m12 9-2.85 1.46V14L12 12.5V9Z" fill="#01A863"/><path d="M5.7 5.63 3.15 7.05 5.7 8.46V5.63Z" fill="#19588D"/><path d="M8.85 7.54V4L6 5.5v3.1l.4.2 2.45-1.26Z" fill="#057279"/><path d="M12.3 5.63v2.83l2.56-1.41-2.56-1.42Z" fill="#FEB34D"/><path d="M12 5.5 9.15 4v3.54l2.46 1.26.39-.2V5.5Z" fill="#337665"/></svg>
